; generated by SuperSlicer 2.5.59.13 on 2025-08-06 at 13:09:22 UTC


;
;

;
;
; TODO: check the size of the extruder and the y-bar clearance. Optimize & test supports.

; external perimeters extrusion width = 0.56mm
; perimeters extrusion width = 0.56mm
; infill extrusion width = 0.56mm
; solid infill extrusion width = 0.56mm
; top infill extrusion width = 0.56mm
; first layer extrusion width = 0.56mm

; object:{"name":"bubek","id":"bubek.STL id:0 copy 0","object_center":[175.000000,175.000000,0.000000],"boundingbox_center":[175.000000,175.000000,17.595327],"boundingbox_size":[34.433422,42.220284,35.190655]}
EXCLUDE_OBJECT_DEFINE NAME=bubek_STL_id_0_copy_0 CENTER=175.000000,175.000000 POLYGON=[[157.78,177.26],[160.12,164.60],[163.70,158.08],[171.48,154.75],[175.00,153.89],[178.52,154.75],[186.30,158.08],[189.88,164.60],[192.22,177.26],[191.96,186.02],[184.54,192.84],[175.00,196.11],[165.46,192.84],[158.04,186.02],[157.78,177.26]]
; plater:{"center":[175.000000,175.000000,0.000000],"boundingbox_center":[175.000000,175.000000,17.595327],"boundingbox_size":[34.433422,42.220284,35.190655]}

M107
;TYPE:Custom
M109 S0 ; uncomment to remove set&wait temp gcode added automatically after this start gcode

PRINT_START EXTRUDER=215 BED=55 CHAMBER=15

SET_PRINT_STATS_INFO TOTAL_LAYER=176

BED_TEMP=55 EXTRUDER_TEMP=215 CHAMBER_TEMP=15
M107
G21 ; set units to millimeters
G90 ; use absolute coordinates
M83 ; use relative distances for extrusion
M190 S55 ; set bed temperature and wait for it to be reached
;LAYER_CHANGE
;Z:0.2
;HEIGHT:0.2
;BEFORE_LAYER_CHANGE
;0.2
; M117 layer 1/176  : Basic PLA @VORON
;SET_PRINT_STATS_INFO CURRENT_LAYER=1
G1 Z0.2 F18000
;AFTER_LAYER_CHANGE
;0.2
SET_PRINT_STATS_INFO CURRENT_LAYER=1
M117 Layer 1/176 : Basic PLA @VORON

G92 E0
G1 E-0.75 F3000
G1 Z0.6 F18000
M204 S1000
G1 X161.36 Y158.183
G1 Z0.2
G1 E0.75 F1800
;TYPE:Skirt
;WIDTH:0.52
M107
G1 X160.189 Y159.828 E0.0801
G1 X153.251 Y175.313 E0.67314
G1 X152.898 Y176.423 E0.04619
G1 X152.904 Y178.442 E0.0801
G1 X153.215 Y179.82 E0.05603
G1 X154.915 Y185.155 E0.22213
G1 X155.501 Y186.393 E0.05432
G1 X156.911 Y187.839 E0.08011
G1 X164.36 Y192.94 E0.35815
G1 X165.198 Y193.406 E0.03805
G1 X167.361 Y193.881 E0.08786
G1 X182.639 Y193.881 E0.60604
G1 X184.708 Y193.447 E0.0839
G1 X185.64 Y192.94 E0.04208
G1 X193.089 Y187.839 E0.35816
G1 X194.106 Y186.921 E0.05432
G1 X195.085 Y185.155 E0.08011
G1 X196.785 Y179.82 E0.22213
G1 X197.096 Y178.442 E0.05602
G1 X197.197 Y177.282 E0.04619
G1 X196.749 Y175.313 E0.08011
G1 X189.811 Y159.828 E0.67313
G1 X188.302 Y157.892 E0.09737
G1 X186.503 Y156.976 E0.0801
G1 X183.905 Y156.248 E0.107
G1 X182.517 Y156.058 E0.0556
G1 X167.483 Y156.058 E0.59638
G1 X166.095 Y156.248 E0.0556
G1 X163.497 Y156.976 E0.10699
G1 X161.412 Y158.153 E0.09499
M107
G1 X161.755 Y158.468 F18000
M107
G1 F1800
G1 X160.624 Y160.023 E0.07626
G1 X153.686 Y175.508 E0.67314
G1 X153.372 Y178.347 E0.1133
G1 X153.669 Y179.675 E0.05398
G1 X155.37 Y185.01 E0.22213
G1 X155.852 Y186.055 E0.04567
G1 X157.18 Y187.445 E0.07626
G1 X164.629 Y192.546 E0.35815
G1 X165.39 Y192.969 E0.03453
G1 X167.361 Y193.404 E0.08008
G1 X182.639 Y193.404 E0.60604
G1 X184.517 Y193.01 E0.07612
G1 X185.371 Y192.546 E0.03856
G1 X192.82 Y187.445 E0.35815
G1 X193.682 Y186.682 E0.04567
G1 X194.63 Y185.01 E0.07626
G1 X196.331 Y179.675 E0.22213
G1 X196.628 Y178.347 E0.05398
G1 X196.314 Y175.508 E0.1133
G1 X189.376 Y160.023 E0.67314
G1 X188.079 Y158.324 E0.08478
G1 X186.374 Y157.436 E0.07626
G1 X183.777 Y156.708 E0.107
G1 X182.517 Y156.535 E0.05045
G1 X167.483 Y156.535 E0.59638
G1 X166.223 Y156.708 E0.05044
G1 X163.626 Y157.436 E0.107
G1 X161.807 Y158.439 E0.0824
M107
G1 X162.147 Y158.758 F18000
M107
G1 F1800
G1 X161.06 Y160.218 E0.07222
G1 X154.122 Y175.703 E0.67314
G1 X153.839 Y178.252 E0.10173
G1 X154.124 Y179.53 E0.05193
G1 X155.824 Y184.865 E0.22213
G1 X156.207 Y185.721 E0.0372
G1 X157.45 Y187.051 E0.07221
G1 X164.899 Y192.153 E0.35816
G1 X165.675 Y192.573 E0.03503
G1 X167.361 Y192.927 E0.06834
G1 X182.639 Y192.927 E0.60604
G1 X184.325 Y192.573 E0.06834
G1 X185.101 Y192.153 E0.03503
G1 X192.55 Y187.051 E0.35815
G1 X193.26 Y186.438 E0.0372
G1 X194.176 Y184.865 E0.07221
G1 X195.99 Y179.092 E0.24008
G1 X196.161 Y178.252 E0.03398
G1 X195.878 Y175.703 E0.10173
G1 X188.94 Y160.218 E0.67314
G1 X187.85 Y158.755 E0.07238
G1 X186.245 Y157.895 E0.07222
G1 X183.648 Y157.167 E0.107
G1 X182.517 Y157.012 E0.04529
G1 X167.483 Y157.012 E0.59638
G1 X166.352 Y157.167 E0.04529
G1 X163.755 Y157.895 E0.107
G1 X162.2 Y158.729 E0.07001
M107
G1 X162.537 Y159.054 F18000
M107
G1 F1800
G1 X161.495 Y160.413 E0.06793
G1 X154.557 Y175.898 E0.67313
G1 X154.307 Y178.157 E0.09016
G1 X154.578 Y179.385 E0.04989
G1 X156.279 Y184.72 E0.22213
G1 X157.719 Y186.658 E0.09577
G1 X165.168 Y191.759 E0.35815
G1 X165.867 Y192.137 E0.03151
G1 X167.361 Y192.45 E0.06056
G1 X182.639 Y192.45 E0.60604
G1 X184.133 Y192.137 E0.06057
G1 X184.832 Y191.759 E0.0315
G1 X192.281 Y186.658 E0.35816
G1 X193.721 Y184.72 E0.09577
G1 X195.422 Y179.385 E0.22213
G1 X195.693 Y178.157 E0.04989
G1 X195.443 Y175.898 E0.09016
G1 X188.505 Y160.413 E0.67313
G1 X187.615 Y159.184 E0.06021
G1 X186.117 Y158.354 E0.06793
G1 X183.519 Y157.627 E0.107
G1 X182.517 Y157.489 E0.04013
G1 X167.483 Y157.489 E0.59638
G1 X166.481 Y157.627 E0.04014
G1 X163.883 Y158.354 E0.107
G1 X162.59 Y159.026 E0.05782
M107
G1 X162.923 Y159.357 F18000
M107
G1 F1800
G1 X161.93 Y160.608 E0.06336
G1 X154.992 Y176.093 E0.67314
G1 X154.774 Y178.062 E0.07858
G1 X155.033 Y179.24 E0.04784
G1 X156.733 Y184.576 E0.22213
G1 X157.989 Y186.264 E0.08348
G1 X165.438 Y191.366 E0.35815
G1 X166.059 Y191.7 E0.02798
G1 X167.361 Y191.973 E0.05279
G1 X182.639 Y191.973 E0.60604
G1 X183.941 Y191.7 E0.05279
G1 X184.562 Y191.366 E0.02797
G1 X192.011 Y186.264 E0.35816
G1 X193.267 Y184.576 E0.08347
G1 X194.967 Y179.24 E0.22213
G1 X195.226 Y178.062 E0.04785
G1 X195.008 Y176.093 E0.07858
G1 X188.07 Y160.608 E0.67313
G1 X187.372 Y159.611 E0.04829
G1 X185.988 Y158.814 E0.06336
G1 X183.391 Y158.086 E0.107
G1 X182.517 Y157.966 E0.03498
G1 X167.483 Y157.966 E0.59638
G1 X166.609 Y158.086 E0.03498
G1 X164.012 Y158.814 E0.107
G1 X162.976 Y159.33 E0.04591
M107
M104 S215 ; set temperature
G1 E-0.75 F3000
M204 S1500
G1 Z0.6 F18000
; printing object bubek.STL id:0 copy 0
EXCLUDE_OBJECT_START NAME=bubek_STL_id_0_copy_0
; acceleration to travel
G1 X175.901 Y172.992
; decel to extrusion
M204 S1000
G1 X184.518 Y182.101
; end travel
G1 Z0.2
G1 E0.75 F1800
;TYPE:Internal perimeter
;WIDTH:0.56
M107
G1 X185.354 Y180.433 E0.0802
G1 X185.419 Y180.38 E0.00362
G1 X186.869 Y178.132 E0.11503
G1 X187.252 Y178.903 E0.03703
G1 X188.736 Y178.103 E0.07248
G1 X188.927 Y178.909 E0.03559
G1 X190.02 Y179.504 E0.05351
G1 X189.001 Y182.808 E0.14864
G1 X182.422 Y187.313 E0.34283
G1 X175 Y185.287 E0.33078
G1 X167.578 Y187.313 E0.33079
G1 X160.999 Y182.808 E0.34282
G1 X159.98 Y179.504 E0.14865
G1 X161.073 Y178.909 E0.0535
G1 X161.264 Y178.103 E0.03559
G1 X162.747 Y178.903 E0.07247
G1 X163.131 Y178.132 E0.03705
G1 X164.581 Y180.38 E0.11503
G1 X164.646 Y180.433 E0.00362
G1 X165.482 Y182.101 E0.0802
G1 X170.149 Y176.768 E0.30468
G1 X170.132 Y176.45 E0.01367
G1 X173.246 Y169.66 E0.3212
G1 X175.013 Y168.867 E0.08324
G1 X176.752 Y169.657 E0.08215
G1 X179.868 Y176.45 E0.32133
G1 X179.851 Y176.768 E0.01366
G1 X184.478 Y182.055 E0.30211
M107
G1 X184.4 Y181.181 F18000
M107
G1 F1800
G1 X184.942 Y180.101 E0.05196
G1 X185.03 Y180.03 E0.00486
G1 X186.927 Y177.087 E0.15054
G1 X187.478 Y178.194 E0.05316
G1 X189.084 Y177.328 E0.07847
G1 X189.377 Y178.565 E0.05465
G1 X190.162 Y178.993 E0.03843
G1 X190.826 Y178.703 E0.03117
G1 X190.599 Y179.379 E0.03069
G1 X189.441 Y183.133 E0.16888
G1 X182.517 Y187.875 E0.36086
G1 X175 Y185.823 E0.33501
G1 X167.483 Y187.875 E0.335
G1 X160.559 Y183.133 E0.36087
G1 X159.401 Y179.379 E0.16887
G1 X159.174 Y178.703 E0.0307
G1 X159.838 Y178.993 E0.03116
G1 X160.623 Y178.565 E0.03843
G1 X160.916 Y177.328 E0.05465
G1 X162.522 Y178.194 E0.07846
G1 X163.073 Y177.087 E0.05317
G1 X164.97 Y180.03 E0.15055
G1 X165.058 Y180.101 E0.00487
G1 X165.6 Y181.181 E0.05195
G1 X169.622 Y176.585 E0.2626
G1 X169.61 Y176.35 E0.01011
G1 X172.857 Y169.267 E0.33501
G1 X175.014 Y168.3 E0.10163
G1 X177.142 Y169.266 E0.10049
G1 X180.39 Y176.35 E0.33509
G1 X180.378 Y176.585 E0.01011
G1 X184.361 Y181.136 E0.26001
M107
G1 X184.283 Y180.262 F18000
;TYPE:External perimeter
M107
G1 F1800
G1 X184.53 Y179.769 E0.02372
G1 X184.641 Y179.68 E0.00611
G1 X186.986 Y176.042 E0.18606
G1 X187.703 Y177.485 E0.06928
G1 X189.432 Y176.553 E0.08446
G1 X189.827 Y178.221 E0.07371
G1 X190.187 Y178.418 E0.01762
G1 X190.74 Y178.176 E0.02595
G1 X191.093 Y177.977 E0.01742
G1 X191.434 Y177.852 E0.0156
G1 X191.672 Y177.807 E0.01042
G1 X191.61 Y178.18 E0.01628
G1 X191.25 Y179.065 E0.04104
G1 X191.092 Y179.538 E0.02146
G1 X189.932 Y183.296 E0.16908
G1 X189.917 Y183.434 E0.00598
G1 X182.611 Y188.437 E0.38071
G1 X175 Y186.359 E0.33923
G1 X167.389 Y188.437 E0.33922
G1 X160.083 Y183.434 E0.38072
G1 X160.068 Y183.296 E0.00597
G1 X158.908 Y179.538 E0.16908
G1 X158.75 Y179.065 E0.02146
G1 X158.39 Y178.18 E0.04104
G1 X158.328 Y177.807 E0.01628
G1 X158.566 Y177.852 E0.01042
G1 X158.907 Y177.977 E0.0156
G1 X159.26 Y178.176 E0.01742
G1 X159.813 Y178.418 E0.02595
G1 X160.173 Y178.221 E0.01762
G1 X160.568 Y176.553 E0.07371
G1 X162.297 Y177.486 E0.08446
G1 X163.014 Y176.042 E0.06928
G1 X165.359 Y179.68 E0.18607
G1 X165.47 Y179.769 E0.00611
G1 X165.717 Y180.262 E0.02371
G1 X169.094 Y176.402 E0.22051
G1 X169.087 Y176.25 E0.00656
G1 X172.468 Y168.875 E0.34882
G1 X175.015 Y167.732 E0.12003
G1 X177.531 Y168.875 E0.11882
G1 X180.913 Y176.25 E0.34885
G1 X180.906 Y176.402 E0.00655
G1 X184.243 Y180.217 E0.21793
M107
;WIPE_START
M204 S1500
G1 X184.45 Y180.375 F18000
;WIPE_END
G1 E-0.75 F3000
G1 Z0.6 F18000
; acceleration to travel
G1 X180.028 Y174.633
; decel to extrusion
M204 S1000
G1 X177.08 Y170.806
; end travel
G1 Z0.2
G1 E0.75 F1800
;TYPE:Solid infill
;WIDTH:0.53993
M107
G1 X176.059 Y169.785 E0.05984
G1 X175.012 Y169.309 E0.04771
G1 X174.902 Y169.359 E0.00499
G1 X177.248 Y171.705 E0.13754
G1 X177.867 Y173.055 E0.06159
G1 X174.397 Y169.585 E0.20343
G1 X173.892 Y169.812 E0.02294
G1 X178.486 Y174.406 E0.26933
G1 X179.106 Y175.756 E0.06159
G1 X173.476 Y170.127 E0.33006
G1 X173.246 Y170.628 E0.02286
G1 X181.186 Y178.568 E0.46551
M107
G1 E-0.75 F3000
M204 S1500
G1 Z0.6 F18000
; acceleration to travel
G1 X185.238 Y178.671
; decel to extrusion
M204 S1000
G1 X187.938 Y178.739
; end travel
G1 Z0.2
G1 E0.75 F1800
M107
G1 X189.387 Y180.188 E0.08493
G1 X189.215 Y180.746 E0.02424
G1 X187.463 Y178.995 E0.10268
M107
G1 X186.608 Y178.871 F18000
M107
G1 F1800
G1 X189.042 Y181.305 E0.14271
G1 X188.87 Y181.864 E0.02424
G1 X186.482 Y179.476 E0.13997
G1 X186.195 Y179.921 E0.02193
G1 X188.697 Y182.423 E0.14668
G1 X188.657 Y182.555 E0.00571
G1 X188.325 Y182.782 E0.01667
G1 X185.909 Y180.366 E0.14164
G1 X185.723 Y180.654 E0.0142
G1 X185.675 Y180.692 E0.00256
G1 X185.618 Y180.806 E0.00528
G1 X187.891 Y183.079 E0.13325
G1 X187.457 Y183.376 E0.0218
G1 X185.374 Y181.293 E0.12212
G1 X185.13 Y181.78 E0.02259
G1 X187.023 Y183.673 E0.11099
G1 X186.589 Y183.971 E0.02181
G1 X184.72 Y182.102 E0.10958
M107
G1 X186.315 Y184.428 F18000
M107
G1 F1800
G1 X173.016 Y171.129 E0.77964
G1 X172.786 Y171.631 E0.02286
G1 X185.721 Y184.565 E0.75829
G1 X185.287 Y184.862 E0.02181
G1 X172.556 Y172.132 E0.74633
G1 X172.326 Y172.633 E0.02286
G1 X184.853 Y185.16 E0.73436
G1 X184.419 Y185.457 E0.02181
G1 X172.096 Y173.135 E0.72239
G1 X171.867 Y173.636 E0.02287
G1 X183.985 Y185.754 E0.71043
G1 X183.551 Y186.051 E0.0218
G1 X171.637 Y174.137 E0.69846
G1 X171.407 Y174.639 E0.02287
G1 X183.117 Y186.349 E0.68649
G1 X182.683 Y186.646 E0.02181
G1 X171.177 Y175.14 E0.67453
G1 X170.947 Y175.642 E0.02286
G1 X182.117 Y186.812 E0.65488
G1 X181.112 Y186.537 E0.04322
G1 X170.717 Y176.143 E0.60939
G1 X170.54 Y176.528 E0.01757
G1 X170.55 Y176.707 E0.00741
G1 X180.106 Y186.263 E0.56024
G1 X179.1 Y185.988 E0.04322
G1 X170.309 Y177.197 E0.51538
G1 X169.968 Y177.587 E0.02148
G1 X178.094 Y185.714 E0.47642
G1 X177.088 Y185.439 E0.04322
G1 X169.626 Y177.977 E0.43746
G1 X169.285 Y178.367 E0.02148
G1 X176.082 Y185.165 E0.3985
G1 X175.077 Y184.89 E0.04322
G1 X168.944 Y178.757 E0.35954
G1 X168.603 Y179.147 E0.02148
G1 X174.469 Y185.014 E0.34394
G1 X173.895 Y185.171 E0.02468
G1 X168.261 Y179.537 E0.33027
G1 X167.92 Y179.927 E0.02148
G1 X173.32 Y185.328 E0.3166
G1 X172.746 Y185.484 E0.02469
G1 X167.579 Y180.317 E0.30293
G1 X167.237 Y180.707 E0.02148
G1 X172.172 Y185.641 E0.28926
G1 X171.597 Y185.798 E0.02468
G1 X166.896 Y181.097 E0.27559
G1 X166.555 Y181.487 E0.02149
G1 X171.023 Y185.955 E0.26191
G1 X170.448 Y186.112 E0.02469
G1 X166.214 Y181.877 E0.24825
G1 X165.872 Y182.267 E0.02148
G1 X170.055 Y186.45 E0.24519
M107
G1 E-0.75 F3000
M204 S1500
G1 Z0.6 F18000
; acceleration to travel
G1 X166.933 Y183.327
; decel to extrusion
M204 S1000
G1 X164.851 Y181.246
; end travel
G1 Z0.2
G1 E0.75 F1800
M107
G1 X162.969 Y179.364 E0.11036
G1 X162.923 Y179.456 E0.00428
G1 X161.636 Y178.762 E0.06059
G1 X169.299 Y186.425 E0.44923
G1 X168.725 Y186.582 E0.02469
G1 X161.356 Y179.214 E0.43198
G1 X160.883 Y179.472 E0.02234
G1 X168.15 Y186.739 E0.42606
G1 X167.652 Y186.875 E0.02142
G1 X167.345 Y186.665 E0.01542
G1 X160.499 Y179.819 E0.40133
G1 X160.826 Y180.877 E0.04588
G1 X165.025 Y185.076 E0.24616
G1 X162.704 Y183.487 E0.11659
G1 X160.815 Y181.598 E0.11073
M107
G1 E-0.75 F3000
M204 S1500
G1 Z0.6 F18000
; acceleration to travel
G1 X163.482 Y183.757
; decel to extrusion
M204 S1000
G1 X165.26 Y185.197
; end travel
G1 Z0.2
G1 E0.75 F1800
;TYPE:Gap fill
;WIDTH:0.38565
M107
G1 X165.323 Y185.249 E0.00233
M107
;WIDTH:0.355209
M107
G1 X165.577 Y185.46 E0.00861
M107
;WIDTH:0.303749
M107
G1 X165.768 Y185.618 E0.00542
M107
;WIDTH:0.252288
M107
G1 X165.959 Y185.777 E0.00436
M107
;WIDTH:0.200828
M107
G1 X166.15 Y185.936 E0.0033
M107
;WIDTH:0.149368
M107
G1 X166.342 Y186.095 E0.00223
M107
G1 E-0.75 F3000
M204 S1500
G1 Z0.6 F18000
; acceleration to travel
G1 X176.132 Y173.571
; decel to extrusion
M204 S1000
G1 X182.659 Y165.222
; end travel
G1 Z0.2
G1 E0.75 F1800
;TYPE:Internal perimeter
;WIDTH:0.56
M107
G1 X182.909 Y164.217 E0.04451
G1 X183.799 Y164.193 E0.03828
G1 X184.412 Y163.868 E0.02983
G1 X184.869 Y165.144 E0.05829
G1 X184.927 Y165.177 E0.00287
G1 X186.281 Y169.97 E0.21415
G1 X185.707 Y170.212 E0.02676
G1 X181.568 Y166.161 E0.24901
G1 X181.602 Y164.399 E0.07576
G1 X182.612 Y165.185 E0.055
M107
G1 X182.349 Y164.325 F18000
M107
G1 F1800
G1 X182.502 Y163.711 E0.02722
G1 X183.664 Y163.68 E0.04998
G1 X184.217 Y163.386 E0.02692
G1 X184.689 Y163.108 E0.02355
G1 X185.29 Y164.787 E0.0767
G1 X185.366 Y164.83 E0.00375
G1 X186.903 Y170.269 E0.24302
G1 X185.591 Y170.821 E0.06118
G1 X181.047 Y166.374 E0.27339
G1 X181.106 Y163.357 E0.12974
G1 X182.302 Y164.288 E0.06517
M107
G1 X182.039 Y163.428 F18000
;TYPE:External perimeter
M107
G1 F1800
G1 X182.266 Y162.514 E0.04052
G1 X182.528 Y161.791 E0.03304
G1 X182.869 Y162.511 E0.03422
G1 X183.085 Y163.178 E0.03015
G1 X183.528 Y163.166 E0.01908
G1 X183.964 Y162.935 E0.02122
G1 X184.965 Y162.345 E0.04992
G1 X185.712 Y164.43 E0.09524
G1 X185.806 Y164.483 E0.00463
G1 X187.524 Y170.569 E0.27189
G1 X185.475 Y171.431 E0.09561
G1 X180.525 Y166.588 E0.29776
G1 X180.583 Y163.62 E0.12762
G1 X180.521 Y162.669 E0.04096
G1 X180.58 Y162.307 E0.01579
G1 X180.911 Y162.494 E0.01636
G1 X181.249 Y162.813 E0.01997
G1 X181.992 Y163.392 E0.04048
M107
;WIPE_START
M204 S1500
G1 X182.226 Y163.504 F18000
;WIPE_END
G1 E-0.75 F3000
G1 Z0.6 F18000
M204 S1000
G1 X184.905 Y165.765
G1 Z0.2
G1 E0.75 F1800
;TYPE:Solid infill
;WIDTH:0.558115
M107
G1 X183.738 Y164.598 E0.0707
G1 X183.226 Y164.612 E0.02196
G1 X183.185 Y164.776 E0.00726
G1 X184.871 Y166.462 E0.10215
G1 X185.159 Y167.481 E0.04537
G1 X183.04 Y165.362 E0.12841
G1 X182.901 Y165.921 E0.02467
G1 X182.749 Y165.803 E0.00825
G1 X185.447 Y168.5 E0.16346
G1 X185.581 Y168.976 E0.02118
G1 X185.336 Y169.121 E0.0122
G1 X181.761 Y165.546 E0.21666
M107
G1 E-0.75 F3000
M204 S1500
