; generated by SuperSlicer 2.5.59.13 on 2025-08-06 at 13:12:40 UTC


;
;

;
;
; TODO: check the size of the extruder and the y-bar clearance. Optimize & test supports.

; external perimeters extrusion width = 0.56mm
; perimeters extrusion width = 0.56mm
; infill extrusion width = 0.56mm
; solid infill extrusion width = 0.56mm
; top infill extrusion width = 0.56mm
; first layer extrusion width = 0.56mm

; object:{"name":"Cute Penguin","id":"Cute Penguin id:0 copy 0","object_center":[175.000000,175.000000,0.000000],"boundingbox_center":[175.000000,175.000000,4.700000],"boundingbox_size":[8.541329,8.253069,9.400000]}
EXCLUDE_OBJECT_DEFINE NAME=Cute_Penguin_id_0_copy_0 CENTER=175.000000,175.000000 POLYGON=[[170.73,174.75],[170.73,174.75],[170.74,174.69],[170.75,174.52],[170.75,174.52],[170.75,174.52],[171.66,173.11],[171.68,173.08],[171.74,173.00],[171.78,172.94],[171.82,172.89],[171.89,172.81],[171.91,172.78],[172.00,172.68],[172.00,172.67],[172.09,172.58],[172.13,172.55],[172.19,172.48],[172.25,172.43],[172.30,172.39],[172.39,172.32],[172.40,172.31],[174.08,170.98],[174.10,170.97],[174.12,170.95],[174.14,170.94],[174.16,170.93],[174.18,170.92],[174.21,170.91],[174.23,170.90],[174.25,170.89],[174.28,170.89],[174.30,170.88],[174.32,170.88],[174.35,170.88],[174.37,170.87],[174.40,170.87],[174.42,170.87],[174.45,170.88],[174.47,170.88],[174.47,170.88],[174.47,170.88],[174.61,170.90],[174.75,170.93],[175.17,171.00],[175.65,171.07],[175.66,171.07],[175.68,171.08],[175.70,171.08],[178.05,171.66],[178.10,171.67],[178.13,171.68],[178.15,171.68],[178.20,171.70],[178.21,171.70],[178.26,171.72],[178.29,171.73],[178.30,171.73],[178.31,171.73],[178.36,171.75],[178.37,171.75],[178.40,171.77],[178.44,171.78],[178.44,171.78],[178.48,171.80],[178.51,171.81],[178.52,171.82],[178.56,171.84],[178.57,171.84],[178.60,171.86],[178.64,171.88],[178.64,171.88],[178.68,171.90],[178.70,171.91],[178.71,171.92],[178.74,171.94],[178.76,171.95],[178.77,171.96],[178.80,171.98],[178.81,171.98],[178.83,172.00],[178.85,172.02],[178.86,172.02],[178.88,172.04],[178.90,172.06],[178.91,172.06],[178.93,172.08],[178.95,172.10],[178.95,172.10],[178.97,172.12],[178.98,172.13],[178.99,172.14],[179.01,172.16],[179.01,172.17],[179.03,172.18],[179.04,172.20],[179.04,172.21],[179.06,172.23],[179.06,172.23],[179.07,172.25],[179.08,172.26],[179.09,172.27],[179.10,172.29],[179.10,172.29],[179.11,172.31],[179.11,172.32],[179.12,172.33],[179.13,172.35],[179.13,172.35],[179.13,172.36],[179.14,172.38],[179.14,172.38],[179.15,172.40],[179.15,172.40],[179.15,172.42],[179.15,172.43],[179.16,172.44],[179.16,172.45],[179.16,172.47],[179.16,172.48],[179.17,172.49],[179.17,172.50],[179.17,172.51],[179.17,172.53],[179.17,172.53],[179.26,174.77],[179.27,174.80],[179.27,174.83],[179.27,174.85],[179.27,174.88],[179.27,174.94],[179.27,175.03],[179.27,175.03],[179.27,175.06],[179.27,175.08],[179.27,175.11],[179.27,175.11],[179.27,175.14],[179.27,175.16],[179.27,175.18],[179.27,175.19],[179.27,175.20],[179.07,177.60],[179.07,177.60],[179.07,177.62],[179.06,177.63],[179.06,177.64],[179.06,177.66],[179.06,177.66],[179.05,177.68],[179.05,177.68],[179.05,177.70],[179.05,177.70],[179.05,177.71],[179.04,177.72],[179.04,177.73],[179.03,177.75],[179.03,177.76],[179.02,177.76],[179.02,177.78],[179.01,177.79],[179.01,177.80],[179.00,177.82],[179.00,177.82],[178.99,177.84],[178.98,177.85],[178.98,177.85],[178.97,177.86],[178.96,177.88],[178.96,177.88],[178.95,177.90],[178.94,177.91],[178.93,177.92],[178.91,177.94],[178.91,177.94],[178.90,177.96],[178.88,177.98],[178.88,177.98],[178.87,177.99],[178.85,178.01],[178.85,178.01],[178.82,178.03],[178.81,178.05],[178.80,178.05],[178.78,178.07],[178.76,178.09],[178.76,178.09],[178.74,178.11],[178.71,178.12],[178.71,178.13],[178.69,178.14],[178.67,178.16],[178.66,178.16],[178.64,178.17],[178.62,178.19],[178.60,178.20],[178.59,178.20],[178.56,178.22],[178.54,178.23],[178.53,178.24],[178.49,178.26],[178.48,178.27],[178.46,178.27],[178.42,178.29],[178.41,178.30],[178.39,178.31],[178.36,178.32],[178.34,178.33],[178.32,178.34],[178.28,178.35],[178.27,178.36],[178.23,178.37],[178.19,178.38],[178.19,178.38],[178.15,178.40],[178.12,178.41],[178.11,178.41],[178.06,178.42],[178.04,178.43],[178.02,178.43],[177.98,178.45],[177.96,178.45],[177.93,178.46],[177.89,178.47],[177.87,178.47],[174.92,179.11],[174.90,179.12],[174.87,179.12],[174.85,179.12],[174.82,179.13],[174.80,179.13],[174.77,179.13],[174.75,179.12],[174.73,179.12],[174.72,179.12],[174.72,179.12],[174.72,179.12],[174.58,179.10],[174.09,179.02],[173.76,178.96],[173.54,178.93],[173.54,178.93],[173.54,178.93],[173.52,178.92],[173.49,178.92],[173.47,178.91],[173.45,178.90],[173.42,178.89],[173.40,178.88],[173.38,178.87],[173.36,178.86],[173.34,178.84],[173.32,178.83],[173.30,178.81],[173.28,178.80],[173.26,178.78],[172.00,177.44],[172.00,177.43],[171.91,177.33],[171.89,177.30],[171.82,177.22],[171.78,177.17],[171.74,177.11],[171.68,177.03],[171.66,177.00],[171.59,176.88],[171.58,176.88],[171.52,176.77],[171.50,176.73],[171.45,176.64],[171.42,176.57],[171.39,176.52],[171.34,176.41],[171.34,176.39],[171.29,176.27],[170.73,174.75]]
; plater:{"center":[175.000000,175.000000,0.000000],"boundingbox_center":[175.000000,175.000000,4.700000],"boundingbox_size":[8.541329,8.253069,9.400000]}

M107
;TYPE:Custom
M109 S0 ; uncomment to remove set&wait temp gcode added automatically after this start gcode

PRINT_START EXTRUDER=215 BED=55 CHAMBER=15

SET_PRINT_STATS_INFO TOTAL_LAYER=47

BED_TEMP=55 EXTRUDER_TEMP=215 CHAMBER_TEMP=15
M107
G21 ; set units to millimeters
G90 ; use absolute coordinates
M83 ; use relative distances for extrusion
M190 S55 ; set bed temperature and wait for it to be reached
;LAYER_CHANGE
;Z:0.2
;HEIGHT:0.2
;BEFORE_LAYER_CHANGE
;0.2
; M117 layer 1/47  : Basic PLA @VORON
;SET_PRINT_STATS_INFO CURRENT_LAYER=1
G1 Z0.2 F18000
;AFTER_LAYER_CHANGE
;0.2
SET_PRINT_STATS_INFO CURRENT_LAYER=1
M117 Layer 1/47 : Basic PLA @VORON

G92 E0
M104 S215 ; set temperature
G1 E-0.75 F3000
G1 Z0.6 F18000
; printing object Cute Penguin id:0 copy 0
EXCLUDE_OBJECT_START NAME=Cute_Penguin_id_0_copy_0
M204 S1000
G1 X174.835 Y173.195
G1 Z0.2
G1 E0.75 F1800
;TYPE:Internal perimeter
;WIDTH:0.56
M107
G1 F900
G1 X174.887 Y173.198 E0.00226
G1 X175.86 Y173.482 E0.0436
G1 X176.279 Y174.265 E0.03815
G1 X176.401 Y174.622 E0.01626
G1 X176.453 Y175.106 E0.02091
G1 X176.4 Y175.497 E0.01696
G1 X176.341 Y175.693 E0.0088
G1 X175.843 Y176.761 E0.05068
G1 X175.716 Y176.698 E0.0061
G1 X174.854 Y176.915 E0.03819
G1 X174.494 Y176.937 E0.01554
G1 X174.281 Y176.916 E0.00918
G1 X173.982 Y176.844 E0.01325
G1 X173.783 Y176.766 E0.00916
G1 X173.463 Y176.577 E0.01596
G1 X173.192 Y176.338 E0.01556
G1 X172.963 Y176.037 E0.01627
G1 X172.865 Y175.854 E0.00892
G1 X172.754 Y175.555 E0.01373
G1 X172.709 Y175.35 E0.00902
G1 X172.688 Y175.131 E0.00945
G1 X172.71 Y174.763 E0.01585
G1 X172.783 Y174.462 E0.01331
G1 X172.958 Y174.082 E0.01801
G1 X173.146 Y173.823 E0.01372
G1 X173.291 Y173.672 E0.00902
G1 X173.473 Y173.523 E0.01013
G1 X173.912 Y173.292 E0.02131
G1 X174.277 Y173.195 E0.01626
G1 X174.493 Y173.173 E0.00933
G1 X174.775 Y173.191 E0.01212
M107
G1 X175.952 Y172.765 F18000
M107
G1 F900
G1 X176.04 Y172.72 E0.00425
G1 X176.754 Y174.057 E0.06519
G1 X176.907 Y174.503 E0.02025
G1 X176.97 Y174.97 E0.02024
G1 X176.97 Y175.14 E0.00735
G1 X176.907 Y175.607 E0.02025
G1 X176.825 Y175.878 E0.01216
G1 X176.087 Y177.461 E0.0751
G1 X175.656 Y177.246 E0.02069
G1 X174.934 Y177.428 E0.03203
G1 X174.484 Y177.455 E0.01938
G1 X174.195 Y177.427 E0.01248
G1 X173.826 Y177.338 E0.01631
G1 X173.556 Y177.232 E0.01248
G1 X173.158 Y176.998 E0.01987
G1 X172.812 Y176.692 E0.01986
G1 X172.526 Y176.317 E0.02024
G1 X172.392 Y176.066 E0.01225
G1 X172.257 Y175.7 E0.01678
G1 X172.198 Y175.431 E0.01186
G1 X172.169 Y175.14 E0.01254
G1 X172.197 Y174.686 E0.01957
G1 X172.288 Y174.307 E0.01678
G1 X172.389 Y174.05 E0.01186
G1 X172.519 Y173.806 E0.01186
G1 X172.748 Y173.491 E0.01679
G1 X172.94 Y173.292 E0.01186
G1 X173.165 Y173.107 E0.01254
G1 X173.307 Y173.012 E0.00735
G1 X173.73 Y172.805 E0.02024
G1 X174.185 Y172.684 E0.02024
G1 X174.484 Y172.655 E0.01292
G1 X174.954 Y172.684 E0.02024
G1 X175.122 Y172.718 E0.00736
G1 X175.703 Y172.894 E0.02611
G1 X175.899 Y172.793 E0.00947
M107
G1 X176.879 Y173.194 F18000
;TYPE:External perimeter
M107
G1 F900
G1 X177.222 Y173.836 E0.03129
G1 X177.307 Y174.041 E0.00953
G1 X177.409 Y174.377 E0.0151
G1 X177.452 Y174.595 E0.00954
G1 X177.487 Y174.944 E0.0151
G1 X177.487 Y175.166 E0.00953
G1 X177.452 Y175.515 E0.0151
G1 X177.409 Y175.733 E0.00954
G1 X177.309 Y176.063 E0.01484
G1 X176.911 Y176.917 E0.0405
G1 X177.559 Y176.97 E0.02796
G1 X177.933 Y177.046 E0.0164
G1 X178.306 Y177.186 E0.01712
G1 X178.52 Y177.319 E0.01083
G1 X178.64 Y177.445 E0.0075
G1 X178.679 Y177.535 E0.00421
G1 X178.678 Y177.587 E0.00227
G1 X178.627 Y177.688 E0.00485
G1 X178.56 Y177.758 E0.00417
G1 X178.298 Y177.928 E0.01342
G1 X177.863 Y178.083 E0.01987
G1 X177.565 Y178.14 E0.01302
G1 X177.064 Y178.175 E0.02162
G1 X176.5 Y178.129 E0.02432
G1 X176.275 Y178.082 E0.00986
G1 X176.013 Y178.002 E0.01181
G1 X175.597 Y177.794 E0.01998
G1 X175.023 Y177.939 E0.02544
G1 X174.68 Y177.972 E0.0148
G1 X174.459 Y177.972 E0.00953
G1 X174.109 Y177.938 E0.0151
G1 X173.671 Y177.833 E0.01938
G1 X173.344 Y177.705 E0.0151
G1 X173.146 Y177.604 E0.00954
G1 X172.854 Y177.417 E0.01494
G1 X172.585 Y177.196 E0.01493
G1 X172.428 Y177.039 E0.00954
G1 X172.205 Y176.768 E0.0151
G1 X172.082 Y176.584 E0.00953
G1 X171.919 Y176.279 E0.01487
G1 X171.76 Y175.846 E0.01984
G1 X171.686 Y175.512 E0.01471
G1 X171.652 Y175.166 E0.01493
G1 X171.652 Y174.944 E0.00954
G1 X171.686 Y174.6 E0.01486
G1 X171.794 Y174.151 E0.01985
G1 X171.918 Y173.833 E0.0147
G1 X172.08 Y173.531 E0.0147
G1 X172.351 Y173.158 E0.01985
G1 X172.588 Y172.911 E0.0147
G1 X172.857 Y172.691 E0.01494
G1 X173.041 Y172.568 E0.00954
G1 X173.351 Y172.402 E0.0151
G1 X173.556 Y172.317 E0.00953
G1 X173.892 Y172.215 E0.0151
G1 X174.109 Y172.172 E0.00954
G1 X174.459 Y172.138 E0.0151
G1 X174.68 Y172.138 E0.00953
G1 X175.03 Y172.172 E0.0151
G1 X175.247 Y172.215 E0.00954
G1 X175.652 Y172.338 E0.01818
G1 X176.05 Y172.133 E0.01923
G1 X176.377 Y172.028 E0.01477
G1 X176.761 Y171.959 E0.01678
G1 X177.254 Y171.937 E0.02123
G1 X177.659 Y171.97 E0.01747
G1 X178.033 Y172.046 E0.01641
G1 X178.406 Y172.186 E0.01711
G1 X178.62 Y172.319 E0.01083
G1 X178.74 Y172.445 E0.0075
G1 X178.786 Y172.549 E0.00489
G1 X178.763 Y172.635 E0.00382
G1 X178.66 Y172.758 E0.00691
G1 X178.398 Y172.928 E0.01341
G1 X178.168 Y173.023 E0.01072
G1 X177.665 Y173.14 E0.02218
G1 X176.939 Y173.19 E0.03129
M107
;WIPE_START
M204 S1500
G1 X176.69 Y173.264 F18000
;WIPE_END
M204 S1000
G1 X176.28 Y172.622
;TYPE:Gap fill
;WIDTH:0.51502
M107
G1 F900
G1 X176.41 Y172.611 E0.00512
M107
;WIDTH:0.610375
M107
G1 X176.54 Y172.601 E0.00616
M107
;WIDTH:0.656158
M107
G1 X176.635 Y172.598 E0.00482
M107
;WIDTH:0.747722
M107
G1 X177.409 Y172.554 E0.04547
M107
;WIDTH:0.705637
M107
G1 X177.655 Y172.554 E0.01353
M107
;WIDTH:0.660883
M107
G1 X177.733 Y172.553 E0.00399
M107
;WIDTH:0.616671
M107
G1 X177.81 Y172.552 E0.00369
M107
;WIDTH:0.572459
M107
G1 X177.954 Y172.555 E0.00633
M107
;WIDTH:0.495898
M107
G1 X178.112 Y172.558 E0.00595
M107
;WIDTH:0.384222
M107
G1 X178.203 Y172.556 E0.0026
M107
;WIDTH:0.315123
M107
G1 X178.225 Y172.554 E0.0005
G1 X178.307 Y172.553 E0.00191
M107
;WIDTH:0.20488
M107
G1 X178.389 Y172.553 E0.00111
M107
;WIDTH:0.083544
M107
G1 X178.492 Y172.559 E0.00035
M107
G1 E-0.75 F3000
M204 S1500
G1 Z0.6 F18000
M204 S1000
G1 X174.421 Y173.376
G1 Z0.2
G1 E0.75 F1800
;TYPE:Solid infill
;WIDTH:0.519353
M107
G1 F900
G1 X176.035 Y174.99 E0.09099
G1 X176.047 Y175.1 E0.00442
G1 X176.008 Y175.386 E0.01152
G1 X175.914 Y175.6 E0.00931
G1 X174.009 Y173.696 E0.10739
G1 X173.708 Y173.855 E0.01361
G1 X173.567 Y173.984 E0.00763
G1 X175.69 Y176.108 E0.11974
G1 X175.6 Y176.311 E0.00886
G1 X175.25 Y176.399 E0.0144
G1 X173.254 Y174.403 E0.11256
G1 X173.166 Y174.595 E0.00842
G1 X173.114 Y174.811 E0.00888
G1 X173.113 Y174.994 E0.00727
G1 X174.849 Y176.729 E0.09789
M107
G1 X174.282 Y176.596 F18000
;TYPE:Gap fill
;WIDTH:0.143676
M107
G1 F900
G1 X174.215 Y176.556 E0.00067
M107
;WIDTH:0.184397
M107
G1 X174.148 Y176.515 E0.00095
M107
;WIDTH:0.225119
M107
G1 X174.08 Y176.475 E0.00121
M107
;WIDTH:0.26584
M107
G1 X174.013 Y176.435 E0.00147
M107
;WIDTH:0.306562
M107
G1 X173.834 Y176.308 E0.00487
M107
;WIDTH:0.372551
M107
G1 X173.521 Y176.032 E0.01155
G1 X173.284 Y175.745 E0.01029
M107
;WIDTH:0.31434
M107
G1 X173.234 Y175.671 E0.00204
M107
;WIDTH:0.275323
M107
G1 X173.183 Y175.597 E0.00176
M107
;WIDTH:0.236305
M107
G1 X173.133 Y175.523 E0.00146
M107
;WIDTH:0.197287
M107
G1 X173.051 Y175.391 E0.00203
M107
;WIDTH:0.143676
M107
G1 X173.02 Y175.333 E0.00057
M107
G1 X175.076 Y173.523 F18000
;WIDTH:0.218747
M107
G1 F900
G1 X175.251 Y173.648 E0.0032
M107
;WIDTH:0.266555
M107
G1 X175.325 Y173.702 E0.00174
M107
;WIDTH:0.311566
M107
G1 X175.4 Y173.756 E0.00208
M107
;WIDTH:0.356577
M107
G1 X175.475 Y173.81 E0.00244
M107
;WIDTH:0.401588
M107
G1 X175.55 Y173.864 E0.00278
G1 X175.631 Y173.972 E0.00406
M107
;WIDTH:0.355641
M107
G1 X175.711 Y174.081 E0.00355
M107
;WIDTH:0.309693
M107
G1 X175.792 Y174.189 E0.00303
M107
;WIDTH:0.263745
M107
G1 X175.872 Y174.298 E0.00251
M107
;WIDTH:0.217797
M107
G1 X176.009 Y174.497 E0.00357
M107
;WIDTH:0.143676
M107
G1 X176.065 Y174.587 E0.00092
M107
G1 X176.346 Y177.518 F18000
;WIDTH:0.550849
M107
G1 F900
G1 X176.401 Y177.521 E0.00236
M107
;WIDTH:0.590941
M107
G1 X176.535 Y177.527 E0.00609
M107
;WIDTH:0.634435
M107
G1 X176.613 Y177.529 E0.00382
M107
;WIDTH:0.678507
M107
G1 X176.709 Y177.526 E0.0051
M107
;WIDTH:0.766651
M107
G1 X177.271 Y177.553 E0.03388
M107
;WIDTH:0.705638
M107
G1 X177.605 Y177.556 E0.01835
M107
;WIDTH:0.611949
M107
G1 X177.787 Y177.552 E0.00864
M107
;WIDTH:0.575825
M107
G1 X177.853 Y177.553 E0.0029
M107
;WIDTH:0.519868
M107
G1 X177.918 Y177.554 E0.0026
M107
;WIDTH:0.46391
M107
G1 X177.983 Y177.554 E0.00229
M107
;WIDTH:0.407952
M107
G1 X178.049 Y177.555 E0.00199
M107
;WIDTH:0.35161
M107
G1 X178.125 Y177.554 E0.00194
M107
;WIDTH:0.315108
M107
G1 X178.207 Y177.553 E0.00186
M107
;WIDTH:0.20487
M107
G1 X178.289 Y177.553 E0.00111
M107
;WIDTH:0.083541
M107
G1 X178.392 Y177.559 E0.00035
M107
M106 S84.15
;LAYER_CHANGE
;Z:0.4
;HEIGHT:0.2
;BEFORE_LAYER_CHANGE
;0.4
; M117 layer 2/47  : Basic PLA @VORON
;SET_PRINT_STATS_INFO CURRENT_LAYER=2
; stop printing object Cute Penguin id:0 copy 0
EXCLUDE_OBJECT_END NAME=Cute_Penguin_id_0_copy_0
M204 S1500
G1 Z0.4 F18000
;AFTER_LAYER_CHANGE
;0.4
SET_PRINT_STATS_INFO CURRENT_LAYER=2
M117 Layer 2/47 : Basic PLA @VORON

G92 E0
M104 S205 ; set temperature
; printing object Cute Penguin id:0 copy 0
EXCLUDE_OBJECT_START NAME=Cute_Penguin_id_0_copy_0
G1 X176.239 Y177.28
;TYPE:Internal perimeter
;WIDTH:0.46292
M106 S84.15
G1 F900
G1 X176.208 Y177.354 E0.00281
G1 X175.803 Y177.189 E0.01525
G1 X175.121 Y177.396 E0.0249
G1 X174.769 Y177.452 E0.01247
G1 X174.465 Y177.458 E0.01061
G1 X174.008 Y177.393 E0.0161
G1 X173.562 Y177.24 E0.01647
G1 X173.156 Y177.001 E0.01647
G1 X172.81 Y176.695 E0.01611
G1 X172.631 Y176.477 E0.00988
G1 X172.423 Y176.137 E0.0139
G1 X172.257 Y175.718 E0.01574
G1 X172.194 Y175.431 E0.01025
G1 X172.166 Y175.139 E0.01025
G1 X172.193 Y174.689 E0.01575
G1 X172.286 Y174.302 E0.01389
G1 X172.389 Y174.039 E0.00989
G1 X172.466 Y173.889 E0.00588
G1 X172.734 Y173.501 E0.01647
G1 X172.937 Y173.289 E0.01025
G1 X173.164 Y173.103 E0.01025
G1 X173.304 Y173.009 E0.00587
G1 X173.727 Y172.802 E0.01647
G1 X174.183 Y172.681 E0.01647
G1 X174.485 Y172.651 E0.01061
G1 X174.956 Y172.681 E0.01647
G1 X175.111 Y172.712 E0.00552
G1 X175.9 Y172.968 E0.02898
G1 X176.197 Y172.813 E0.01169
G1 X176.831 Y174.236 E0.0544
G1 X176.882 Y174.392 E0.00575
G1 X176.967 Y174.856 E0.01647
G1 X176.973 Y175.16 E0.01061
G1 X176.906 Y175.627 E0.01647
G1 X176.863 Y175.778 E0.00548
G1 X176.262 Y177.225 E0.05473
M106 S84.15
G1 X176.802 Y177.019 F18000
M106 S84.15
G1 F900
G1 X176.783 Y177.065 E0.00174
G1 X177.873 Y177.291 E0.03889
